16x16/apps/construo.svg

<svg xmlns="http://www.w3.org/2000/svg" width="16" height="16" version="1.1">
 <path style="fill:#007c7d;fill-rule:evenodd" d="m 12.538172,0.59076421 c -0.06375,-5.1154e-4 -0.127129,0.009423 -0.187395,0.0293731 L 5.9989813,2.0146532 C 5.8359093,2.0477083 5.6966606,2.1487088 5.6190865,2.2901994 L 2.0425372,7.0668013 c -0.094,0.090349 -0.1513854,0.2098493 -0.1618743,0.3370896 -5.7e-6,0.00139 -5.7e-6,0.00281 0,0.00419 -0.00134,0.014417 -0.00207,0.028887 -0.00219,0.043362 2.377e-4,0.015887 0.00121,0.031756 0.00291,0.047557 0.00175,0.017834 0.00442,0.035573 0.00802,0.053151 0.0037,0.017696 0.00832,0.035201 0.013854,0.052452 0.016746,0.055112 0.042595,0.1072929 0.076562,0.1545573 2.469e-4,4.749e-4 4.952e-4,9.499e-4 7.428e-4,0.00143 l 3.3038427,6.7599768 7.238e-4,0.0021 c 9.524e-4,0.0033 0.00194,0.0065 0.00297,0.0098 4.953e-4,0.0013 9.905e-4,0.0028 0.00149,0.0042 0.00549,0.0166 0.01181,0.03295 0.018949,0.04895 0.00518,0.01138 0.010781,0.02257 0.016777,0.03357 0.00416,0.0081 0.00854,0.01595 0.01312,0.02377 0.00468,0.0073 0.00954,0.01457 0.014579,0.02169 0.00401,0.0061 0.00814,0.0122 0.012404,0.01818 0.00873,0.01202 0.017973,0.02368 0.027699,0.03498 0.00168,0.0021 0.00339,0.0042 0.00512,0.0063 0.00866,0.0094 0.017661,0.01849 0.026983,0.02728 0.00501,0.005 0.010114,0.0099 0.015318,0.01469 0.00525,0.0048 0.010598,0.0094 0.016034,0.01397 0.01107,0.009 0.022503,0.01769 0.03427,0.02588 4.952e-4,2.32e-4 9.904e-4,4.75e-4 0.00149,6.95e-4 4.952e-4,4.74e-4 9.905e-4,9.49e-4 0.00149,0.0014 0.014133,0.0097 0.028731,0.01884 0.04375,0.02728 4.953e-4,4.74e-4 9.905e-4,9.49e-4 0.00149,0.0014 0.00145,7.31e-4 0.0029,0.0014 0.00437,0.0021 0.013543,0.0076 0.027409,0.01454 0.041562,0.02098 0.00171,9.5e-4 0.00339,0.0019 0.00512,0.0029 0.00556,0.0022 0.011151,0.0043 0.016777,0.0063 0.00722,0.0032 0.014511,0.0062 0.021867,0.0091 0.015562,0.0056 0.031379,0.01047 0.047396,0.01469 0.079406,0.02165 0.1628194,0.02618 0.2442693,0.01329 l 7.4973835,0.0077 c 0.418859,0.04881 0.741431,-0.347317 0.590597,-0.725266 l -0.888948,-3.410277 c -0.02577,-0.358003 -0.403274,-0.591561 -0.753956,-0.46647 -0.0017,4.74e-4 -0.0034,9.49e-4 -0.0051,0.0014 L 8.5893516,11.31532 7.0799817,8.722931 8.160603,5.4859553 13.112043,5.104107 13.620271,4.493569 13.090169,1.1293229 C 13.091007,0.83510606 12.844898,0.59499815 12.538172,0.59076421 Z"/>
 <path style="fill:none;stroke:#00feff;stroke-linecap:round;stroke-linejoin:bevel" d="M 2.2934589,7.4269291 7.9772518,5.131788 12.69457,0.98287934 M 13.707067,14.496615 8.5755459,11.752387 M 5.7451551,14.488901 12.763604,10.604816 M 5.7451551,14.488901 8.5755459,11.752387 M 5.7451551,14.488901 6.6656076,8.7951861 M 2.2934589,7.4269291 6.6656076,8.7951861 M 7.9772518,5.131788 6.6656076,8.7951861 8.5755459,11.752387 12.763604,10.604816 13.707067,14.496615 5.7451551,14.488901 2.2934589,7.4269291 6.0443017,2.4173421 Z M 6.0443017,2.4173421 12.69457,0.98287934 13.246841,4.7124833 7.9772518,5.131788"/>
 <path style="fill:#ff6060" d="M 13,0 A 0.99999995,0.99999995 0 0 0 12,0.99999994 0.99999995,0.99999995 0 0 0 13,1.9999999 0.99999995,0.99999995 0 0 0 14,0.99999994 0.99999995,0.99999995 0 0 0 13,0 Z"/>
 <path style="fill:#ff6060" d="m 13,4 a 0.99999995,0.99999995 0 0 0 -1,0.9999999 0.99999995,0.99999995 0 0 0 1,1 0.99999995,0.99999995 0 0 0 1,-1 A 0.99999995,0.99999995 0 0 0 13,4 Z"/>
 <path style="fill:#ff6060" d="m 6,1 a 0.99999995,0.99999995 0 0 0 -1,0.9999999 0.99999995,0.99999995 0 0 0 1,1 0.99999995,0.99999995 0 0 0 1,-1 A 0.99999995,0.99999995 0 0 0 6,1 Z"/>
 <path style="fill:#ff6060" d="m 8,5 a 0.99999995,0.99999995 0 0 0 -1,0.9999999 0.99999995,0.99999995 0 0 0 1,1 0.99999995,0.99999995 0 0 0 1,-1 A 0.99999995,0.99999995 0 0 0 8,5 Z"/>
 <path style="fill:#ff6060" d="m 2,6 a 0.99999995,0.99999995 0 0 0 -1,0.9999999 0.99999995,0.99999995 0 0 0 1,1 0.99999995,0.99999995 0 0 0 1,-1 A 0.99999995,0.99999995 0 0 0 2,6 Z"/>
 <path style="fill:#ff6060" d="m 7,8 a 0.99999995,0.99999995 0 0 0 -1,0.9999999 0.99999995,0.99999995 0 0 0 1,1 0.99999995,0.99999995 0 0 0 1,-1 A 0.99999995,0.99999995 0 0 0 7,8 Z"/>
 <path style="fill:#ff6060" d="M 5,14 A 0.99999995,0.99999995 0 0 0 4,15 0.99999995,0.99999995 0 0 0 5,16 0.99999995,0.99999995 0 0 0 6,15 0.99999995,0.99999995 0 0 0 5,14 Z"/>
 <path style="fill:#ff6060" d="m 13,10 a 0.99999995,0.99999995 0 0 0 -1,1 0.99999995,0.99999995 0 0 0 1,1 0.99999995,0.99999995 0 0 0 1,-1 0.99999995,0.99999995 0 0 0 -1,-1 z"/>
 <path style="fill:#ff6060" d="m 14,14 a 0.99999995,0.99999995 0 0 0 -1,1 0.99999995,0.99999995 0 0 0 1,1 0.99999995,0.99999995 0 0 0 1,-1 0.99999995,0.99999995 0 0 0 -1,-1 z"/>
 <path style="fill:#ff6060" d="m 9,11 a 0.99999995,0.99999995 0 0 0 -1,1 0.99999995,0.99999995 0 0 0 1,1 0.99999995,0.99999995 0 0 0 1,-1 0.99999995,0.99999995 0 0 0 -1,-1 z"/>
</svg>

<svg xmlns="http://www.w3.org/2000/svg" width="16" height="16"><path style="fill:#007c7d;fill-rule:evenodd" d="M12.538.59a.582.582 0 0 0-.187.03L5.999 2.015a.558.558 0 0 0-.38.275L2.043 7.067a.528.528 0 0 0-.063.692v.002l3.304 6.76.001.002a.47.47 0 0 0 .003.01l.002.004a.524.524 0 0 0 .2.269h.002l.002.002c.014.01.029.019.044.027l.001.002.004.002a.552.552 0 0 0 .133.054c.08.021.163.026.244.013l7.498.008c.419.049.741-.348.59-.726l-.889-3.41c-.025-.358-.403-.591-.754-.466l-.005.001-3.77 1.002-1.51-2.592 1.08-3.237 4.952-.382.508-.61-.53-3.365a.548.548 0 0 0-.552-.538z"/><path style="fill:none;stroke:#00feff;stroke-linecap:round;stroke-linejoin:bevel" d="m2.293 7.427 5.684-2.295 4.718-4.15m1.012 13.515-5.131-2.745m-2.83 2.737 7.018-3.884m-7.019 3.884 2.83-2.737m-2.83 2.737.92-5.694M2.294 7.427l4.373 1.368m1.311-3.663L6.666 8.795l1.91 2.957 4.188-1.147.943 3.892-7.962-.008-3.452-7.062 3.751-5.01zM6.044 2.417l6.65-1.434.553 3.73-5.27.419"/><path style="fill:#ff6060" d="M13 0a1 1 0 0 0-1 1 1 1 0 0 0 1 1 1 1 0 0 0 1-1 1 1 0 0 0-1-1zM13 4a1 1 0 0 0-1 1 1 1 0 0 0 1 1 1 1 0 0 0 1-1 1 1 0 0 0-1-1zM6 1a1 1 0 0 0-1 1 1 1 0 0 0 1 1 1 1 0 0 0 1-1 1 1 0 0 0-1-1zM8 5a1 1 0 0 0-1 1 1 1 0 0 0 1 1 1 1 0 0 0 1-1 1 1 0 0 0-1-1zM2 6a1 1 0 0 0-1 1 1 1 0 0 0 1 1 1 1 0 0 0 1-1 1 1 0 0 0-1-1zM7 8a1 1 0 0 0-1 1 1 1 0 0 0 1 1 1 1 0 0 0 1-1 1 1 0 0 0-1-1zM5 14a1 1 0 0 0-1 1 1 1 0 0 0 1 1 1 1 0 0 0 1-1 1 1 0 0 0-1-1zM13 10a1 1 0 0 0-1 1 1 1 0 0 0 1 1 1 1 0 0 0 1-1 1 1 0 0 0-1-1zM14 14a1 1 0 0 0-1 1 1 1 0 0 0 1 1 1 1 0 0 0 1-1 1 1 0 0 0-1-1zM9 11a1 1 0 0 0-1 1 1 1 0 0 0 1 1 1 1 0 0 0 1-1 1 1 0 0 0-1-1z"/></svg>
